icons/profile-users-profiles-x.svg

<svg fill="none" viewBox="0 0 24 24"><path fill="currentColor" d="M1.4 21.6a1 1 0 0 0 2 0zm1-3.6h1zm10.8-2.6a1 1 0 1 0 0-2zm7.7 2.7a1 1 0 0 0 1.4-1.4zm-2.4-5.2a1 1 0 0 0-1.4 1.4zm-1.4 3.8a1 1 0 0 0 1.4 1.4zm5.2-2.4a1 1 0 0 0-1.4-1.4zm-8.9-8.3a2.6 2.6 0 0 1-2.6 2.6v2a4.6 4.6 0 0 0 4.6-4.6zm-2.6 2.6a2.6 2.6 0 0 1-2.6-2.6h-2a4.6 4.6 0 0 0 4.6 4.6zm-2.6-2.6a2.6 2.6 0 0 1 2.6-2.6v-2a4.6 4.6 0 0 0-4.6 4.6zm2.6-2.6a2.6 2.6 0 0 1 2.6 2.6h2a4.6 4.6 0 0 0-4.6-4.6zm-7.4 18.2v-3.6h-2v3.6zm2.6-8.2a4.6 4.6 0 0 0-4.6 4.6h2a2.6 2.6 0 0 1 2.6-2.6zm0 2h7.2v-2h-7.2zm16.3 1.3-1.9-2-1.4 1.5 1.9 2zm-1.9-2-2-1.8-1.3 1.4 1.9 1.9zm-2 3.4 2-1.9-1.4-1.4-2 1.9zm2-1.9 2-2-1.5-1.3-2 1.9z"/></svg>

<svg fill="none" viewBox="0 0 24 24"><path fill="currentColor" d="M1.4 21.6a1 1 0 0 0 2 0zm1-3.6h1zm10.8-2.6a1 1 0 1 0 0-2zm7.7 2.7a1 1 0 0 0 1.4-1.4zM18.5 13a1 1 0 0 0-1.4 1.4zM17 16.7a1 1 0 0 0 1.4 1.4zm5.2-2.4a1 1 0 0 0-1.4-1.4zM13.4 6a2.6 2.6 0 0 1-2.6 2.6v2A4.6 4.6 0 0 0 15.4 6zm-2.6 2.6A2.6 2.6 0 0 1 8.2 6h-2a4.6 4.6 0 0 0 4.6 4.6zM8.2 6a2.6 2.6 0 0 1 2.6-2.6v-2A4.6 4.6 0 0 0 6.2 6zm2.6-2.6A2.6 2.6 0 0 1 13.4 6h2a4.6 4.6 0 0 0-4.6-4.6zM3.4 21.6V18h-2v3.6zM6 13.4A4.6 4.6 0 0 0 1.4 18h2A2.6 2.6 0 0 1 6 15.4zm0 2h7.2v-2H6zm16.3 1.3-1.9-2-1.4 1.5 1.9 2zm-1.9-2-2-1.8-1.3 1.4 1.9 1.9zm-2 3.4 2-1.9-1.4-1.4-2 1.9zm2-1.9 2-2-1.5-1.3-2 1.9z"/></svg>
